X:1
T:Title
%%score ( 1 2 ) ( 3 4 )
L:1/8
Q:1/4=100
M:4/4
K:E
V:1 treble nm="Midi_20"
V:2 treble 
V:3 bass nm="Midi_20"
V:4 bass 
V:1
"^Missionary (76. 76. D)""^Lowell Mason\n(1792-1872)""^From Greenland's icy mountains""^Reginald Heber\n(1783-1826)" E2 | %1
 G2 B2 B2 c2 | B4 G2 E2 | D2 E2 A2 G2 | F6 || E2 | G2 B2 B2 c2 | B4 G2 F2 | G2 c2 B2 ^A2 | B6 || %10
 B2 | e2 B2 A2 G2 | c4 B2 d2 | e2 B2 A2 G2 | F6 || E2 | G2 B2 B2 c2 | B4 G2 E2 | F2 A2 G2 F2 | %19
 E6 |] %20
V:2
 E2 | E2 E2 E2 E2 | E4 E2 B,2 | B,2 E2 D2 E2 | D6 || B,2 | E2 E2 E2 E2 | E4 E2 D2 | E2 G2 F2 E2 | %9
 D6 || D2 | E2 E2 D2 E2 | E4 E2 A2 | G2 E2 D2 E2 | D6 || E2 | E2 E2 E2 E2 | E4 E2 E2 | %18
 E2 E2 E2 D2 | E6 |] %20
V:3
 G,2 | B,2 G,2 B,2 A,2 | G,4 B,2 B,2 | B,2 B,2 B,2 B,2 | B,6 || G,2 | B,2 G,2 B,2 A,2 | %7
 G,4 B,2 B,2 | B,2 E2 D2 C2 | B,6 || %10
"^1. From Greenland's icy mountains,\nFrom India's coral strand,\nWhere Afric's sunny fountains\nRoll down their golden sand;\nFrom many an ancient river,\nFrom many a palmy plain,\nThey call us to deliver\nTheir land from error's chain.\n\n2. Can we, whose souls were lighted\nWith wisdom from on high,\nCan we to men benighted\nThe lamp of life deny?\nSalvation! O salvation!\nThe joyful sound proclaim,\nTill each remotest nation\nHas learnt Messiah's name." B,2 | %11
 B,2 B,2 B,2 B,2 | A,4 B,2 B,2 | B,2 G,2 A,2 B,2 | B,6 || %15
"^3. Waft, waft, ye winds, His story,\nAnd you, ye waters, roll,\nTill, like a sea of glory,\nIt spreads from pole to pole;\nTill o'er our ransomed nature\nThe Lamb for sinners slain,\nRedeemer, King, Creator,\nIn bliss returns to reign." G,2 | %16
 B,2 G,2 B,2 A,2 | G,4 B,2 B,2 | C2 C2 B,2 A,2 | G,6 |] %20
V:4
 E,2 | E,2 E,2 G,2 A,2 | E,4 E,2 G,2 | A,2 G,2 F,2 E,2 | B,,6 || E,2 | E,2 E,2 G,2 A,2 | %7
 E,4 E,2 B,,2 | E,2 C,2 F,2 F,2 | B,,6 || A,2 | G,2 G,2 F,2 E,2 | A,4 G,2 F,2 | E,2 G,2 F,2 E,2 | %14
 B,,6 || E,2 | E,2 E,2 G,2 A,2 | E,4 E,2 G,2 | A,2 F,2 B,2 B,,2 | E,6 |] %20

